X: 19882
T: Jig After Corelli
R: jig
M: 6/8
K: Dmajor
fe|:dAF DFA|ecA EAe|[f2A2D2] f fed|ecB A2 e|
faf fed|ede e2 e|fed B2 B|A3 z Ac:|
|:dcd fed|BGD G,2 e|e^de gfe|cAE A,2 a|
aAA gAA|fAc d2 f|[f2d2] f edc|[d4F4] zz:|

